public/cloud-icons/azure/office-365/o365-api-google-drive.svg

<svg xmlns="http://www.w3.org/2000/svg" xml:space="preserve" width="75.59" height="75.59" style="font-size:12px;overflow:visible;color-interpolation-filters:sRGB;fill-rule:evenodd;stroke-linecap:square;stroke-miterlimit:3" viewBox="0 0 56.693 56.693"><defs><linearGradient id="a" x1="0" x2="26.862" y1="78.123" y2="78.123" gradientTransform="scale(1.08928 .91804)" gradientUnits="userSpaceOnUse"><stop offset="0" stop-color="#f5c336"/><stop offset=".52" stop-color="#ffd350"/><stop offset="1" stop-color="#f5c336"/></linearGradient><linearGradient id="b" x1="0" x2="21.744" y1="137.382" y2="137.382" gradientTransform="scale(1.65103 .60568)" gradientUnits="userSpaceOnUse"><stop offset="0" stop-color="#436db4"/><stop offset=".52" stop-color="#557dbf"/><stop offset="1" stop-color="#436db4"/></linearGradient><linearGradient id="c" x1="0" x2="28.688" y1="44.382" y2="44.382" gradientTransform="scale(.75815 1.319)" gradientUnits="userSpaceOnUse"><stop offset="0" stop-color="#039b5a"/><stop offset=".53" stop-color="#09aa61"/><stop offset="1" stop-color="#039b5a"/></linearGradient></defs><g transform="translate(-5.67 -5.67)"><title>Page-1</title><g transform="translate(5.67 -34.016)"><title>O365 - API Google Drive.22330</title><desc>This package will provide stencils to visually represent Power Platform: Power Bi, Power Apps, Power Virtual Agents and/or Power Automate devices, architectures or solutions diagrams. It will provide stencils to visually represent features, systems, processes and architectures that use these technologies.</desc><title>Page-1</title><title>Power Automate API: Google Drive</title><title>rect5940</title><title>Sheet.22334</title><path d="M0 39.685h56.693v56.693H0z" style="fill:#20427f;stroke:none;stroke-width:.75"/><g transform="translate(20.187 -22.606)"><title>path5942</title><title>Sheet.22336</title><path d="M0 71.72h15.11l14.15 24.66H14.14Z" style="fill:url(#a);stroke:none;stroke-width:.75"/></g><g transform="translate(13.66 -9.43)"><title>path5944</title><title>Sheet.22338</title><path d="m35.78 83.21-7.62 13.17H0l7.61-13.17H35.9Z" style="fill:url(#b);stroke:none;stroke-width:.75"/></g><g transform="translate(6.165 -9.551)"><title>path5946</title><title>Sheet.22340</title><path d="M7.49 96.38 0 83.21l14.14-24.67 7.61 13.18Z" style="fill:url(#c);stroke:none;stroke-width:.75"/></g><g transform="translate(13.66 -9.551)"><title>path5948</title><title>Sheet.22342</title><path d="m0 96.38 14.02-13.17H7.49Z" style="fill:#4672c4;fill-opacity:.09800002;stroke:none;stroke-width:.75"/></g><g transform="translate(31.066 -22.606)"><title>path5950</title><title>Sheet.22344</title><path d="M18.38 96.38H3.27L0 90.58Z" style="fill:#4672c4;fill-opacity:.09800002;stroke:none;stroke-width:.75"/></g><g transform="translate(20.187 -28.53)"><title>path5952</title><title>Sheet.22346</title><path d="m0 77.65 4.35 18.73 3.26-5.56Z" style="fill:#4672c4;fill-opacity:.09800002;stroke:none;stroke-width:.75"/></g></g></g></svg>

<?xml version="1.0" encoding="UTF-8" standalone="no"?>
<!-- Generated by Microsoft Visio, SVG Export O365 - API Google Drive.svg Page-1 -->

<svg
   xmlns:dc="http://purl.org/dc/elements/1.1/"
   xmlns:cc="http://creativecommons.org/ns#"
   xmlns:rdf="http://www.w3.org/1999/02/22-rdf-syntax-ns#"
   xmlns:svg="http://www.w3.org/2000/svg"
   xmlns="http://www.w3.org/2000/svg"
   xmlns:sodipodi="http://sodipodi.sourceforge.net/DTD/sodipodi-0.dtd"
   xmlns:inkscape="http://www.inkscape.org/namespaces/inkscape"
   width="0.78739941in"
   height="0.78739941in"
   viewBox="0 0 56.692756 56.692898"
   xml:space="preserve"
   class="st6"
   version="1.1"
   id="svg97"
   sodipodi:docname="O365 - API Google Drive.svg"
   style="font-size:12px;overflow:visible;color-interpolation-filters:sRGB;fill:none;fill-rule:evenodd;stroke-linecap:square;stroke-miterlimit:3"
   inkscape:version="0.92.5 (2060ec1f9f, 2020-04-08)"><metadata
   id="metadata101"><rdf:RDF><cc:Work
       rdf:about=""><dc:format>image/svg+xml</dc:format><dc:type
         rdf:resource="http://purl.org/dc/dcmitype/StillImage" /></cc:Work></rdf:RDF></metadata><sodipodi:namedview
   pagecolor="#ffffff"
   bordercolor="#666666"
   borderopacity="1"
   objecttolerance="10"
   gridtolerance="10"
   guidetolerance="10"
   inkscape:pageopacity="0"
   inkscape:pageshadow="2"
   inkscape:window-width="640"
   inkscape:window-height="480"
   id="namedview99"
   showgrid="false"
   inkscape:zoom="1.8365233"
   inkscape:cx="37.795184"
   inkscape:cy="18.897555"
   inkscape:window-x="0"
   inkscape:window-y="0"
   inkscape:window-maximized="0"
   inkscape:current-layer="svg97" />
	<style
   type="text/css"
   id="style2">
	<![CDATA[
		.st1 {fill:#20427f;stroke:none;stroke-width:0.75}
		.st2 {fill:url(#grad0-11);stroke:none;stroke-width:0.75}
		.st3 {fill:url(#grad0-16);stroke:none;stroke-width:0.75}
		.st4 {fill:url(#grad0-21);stroke:none;stroke-width:0.75}
		.st5 {fill:#4672c4;fill-opacity:0.098;stroke:none;stroke-width:0.75}
		.st6 {fill:none;fill-rule:evenodd;font-size:12px;overflow:visible;stroke-linecap:square;stroke-miterlimit:3}
	]]>
	</style>

	<defs
   id="Patterns_And_Gradients">
		<linearGradient
   id="grad0-11"
   x1="0"
   y1="78.123359"
   x2="26.861713"
   y2="78.123359"
   gradientTransform="scale(1.0892827,0.91803529)"
   gradientUnits="userSpaceOnUse">
			<stop
   offset="0"
   stop-color="#f5c336"
   stop-opacity="1"
   id="stop4" />
			<stop
   offset="0.52"
   stop-color="#ffd350"
   stop-opacity="1"
   id="stop6" />
			<stop
   offset="1"
   stop-color="#f5c336"
   stop-opacity="1"
   id="stop8" />
		</linearGradient>
		<linearGradient
   id="grad0-16"
   x1="0"
   y1="137.38201"
   x2="21.744034"
   y2="137.38201"
   gradientTransform="scale(1.6510276,0.60568339)"
   gradientUnits="userSpaceOnUse">
			<stop
   offset="0"
   stop-color="#436db4"
   stop-opacity="1"
   id="stop11" />
			<stop
   offset="0.52"
   stop-color="#557dbf"
   stop-opacity="1"
   id="stop13" />
			<stop
   offset="1"
   stop-color="#436db4"
   stop-opacity="1"
   id="stop15" />
		</linearGradient>
		<linearGradient
   id="grad0-21"
   x1="0"
   y1="44.381991"
   x2="28.688325"
   y2="44.381991"
   gradientTransform="scale(0.75814813,1.3190035)"
   gradientUnits="userSpaceOnUse">
			<stop
   offset="0"
   stop-color="#039b5a"
   stop-opacity="1"
   id="stop18" />
			<stop
   offset="0.53"
   stop-color="#09aa61"
   stop-opacity="1"
   id="stop20" />
			<stop
   offset="1"
   stop-color="#039b5a"
   stop-opacity="1"
   id="stop22" />
		</linearGradient>
	</defs>
	<g
   id="g95"
   transform="translate(-5.6693772,-5.6693014)">
		<title
   id="title26">Page-1</title>
		<g
   id="group22330-1"
   transform="translate(5.66929,-34.0157)">
			<title
   id="title28">O365 - API Google Drive.22330</title>
			<desc
   id="desc30">This package will provide stencils to visually represent Power Platform: Power Bi, Power Apps, Power Virtual Agents and/or Power Automate devices, architectures or solutions diagrams. It will provide stencils to visually represent features, systems, processes and architectures that use these technologies.</desc>
			<g
   id="group22331-2">
				<title
   id="title32">Page-1</title>
				<g
   id="group22332-3">
					<title
   id="title34">Power Automate API: Google Drive</title>
					<g
   id="group22333-4">
						<title
   id="title36">rect5940</title>
						<g
   id="shape22334-5">
							<title
   id="title38">Sheet.22334</title>
							<rect
   x="0"
   y="39.685001"
   width="56.692902"
   height="56.692902"
   class="st1"
   id="rect40"
   style="fill:#20427f;stroke:none;stroke-width:0.75" />
						</g>
					</g>
					<g
   id="group22335-7"
   transform="translate(20.187,-22.6062)">
						<title
   id="title44">path5942</title>
						<g
   id="shape22336-8">
							<title
   id="title46">Sheet.22336</title>
							<path
   d="M 0,71.72 H 15.11 L 29.26,96.38 H 14.14 Z"
   class="st2"
   id="path48"
   inkscape:connector-curvature="0"
   style="fill:url(#grad0-11);stroke:none;stroke-width:0.75" />
						</g>
					</g>
					<g
   id="group22337-12"
   transform="translate(13.6595,-9.43022)">
						<title
   id="title52">path5944</title>
						<g
   id="shape22338-13">
							<title
   id="title54">Sheet.22338</title>
							<path
   d="M 35.78,83.21 28.16,96.38 H 0 L 7.61,83.21 H 35.9 Z"
   class="st3"
   id="path56"
   inkscape:connector-curvature="0"
   style="fill:url(#grad0-16);stroke:none;stroke-width:0.75" />
						</g>
					</g>
					<g
   id="group22339-17"
   transform="translate(6.16493,-9.55109)">
						<title
   id="title60">path5946</title>
						<g
   id="shape22340-18">
							<title
   id="title62">Sheet.22340</title>
							<path
   d="M 7.49,96.38 0,83.21 14.14,58.54 21.75,71.72 Z"
   class="st4"
   id="path64"
   inkscape:connector-curvature="0"
   style="fill:url(#grad0-21);stroke:none;stroke-width:0.75" />
						</g>
					</g>
					<g
   id="group22341-22"
   transform="translate(13.6595,-9.55109)">
						<title
   id="title68">path5948</title>
						<g
   id="shape22342-23">
							<title
   id="title70">Sheet.22342</title>
							<path
   d="M 0,96.38 14.02,83.21 H 7.49 Z"
   class="st5"
   id="path72"
   inkscape:connector-curvature="0"
   style="fill:#4672c4;fill-opacity:0.09800002;stroke:none;stroke-width:0.75" />
						</g>
					</g>
					<g
   id="group22343-25"
   transform="translate(31.0663,-22.6062)">
						<title
   id="title76">path5950</title>
						<g
   id="shape22344-26">
							<title
   id="title78">Sheet.22344</title>
							<path
   d="M 18.38,96.38 H 3.27 L 0,90.58 Z"
   class="st5"
   id="path80"
   inkscape:connector-curvature="0"
   style="fill:#4672c4;fill-opacity:0.09800002;stroke:none;stroke-width:0.75" />
						</g>
					</g>
					<g
   id="group22345-28"
   transform="translate(20.187,-28.5294)">
						<title
   id="title84">path5952</title>
						<g
   id="shape22346-29">
							<title
   id="title86">Sheet.22346</title>
							<path
   d="M 0,77.65 4.35,96.38 7.61,90.82 Z"
   class="st5"
   id="path88"
   inkscape:connector-curvature="0"
   style="fill:#4672c4;fill-opacity:0.09800002;stroke:none;stroke-width:0.75" />
						</g>
					</g>
				</g>
			</g>
		</g>
	</g>
</svg>
